src/topics/icons/sherlock.svg

<svg height="256" preserveAspectRatio="xMidYMid" viewBox="0 0 256 256" width="256" xmlns="http://www.w3.org/2000/svg"><circle cx="128" cy="128" fill="#373e4d" r="128"/><path d="m159.581198 131.861093c-16.97976 0-30.744774-13.765014-30.744774-30.744775 0-16.9797599 13.765014-30.7447737 30.744774-30.7447737 16.979761 0 30.744774 13.7650138 30.744774 30.7447737 0 16.979761-13.765013 30.744775-30.744774 30.744775zm30.535373 41.620055c-1.242248.868276-3.356313 1.556645-6.684313 1.602654-23.563207-31.379465-38.285567-34.568258-53.386028-20.574378-1.287668 1.193291-3.246599 1.221014-4.560221.055447-14.825585-13.158046-31.832479-10.941935-52.910009 19.962102-2.376553 1.217474-4.1650138.646488-5.4379355-.418212v-73.697327c0-4.5254197 1.1366636-9.0237054 3.5621751-12.84424 9.7958341-15.4290138 34.6331424-20.3761843 46.4238894 1.4186175-10.457069 48.3132165 42.038857 70.9007925 72.992442 43.0846825zm-64.835834-99.3445162c-17.14964-25.5162396-64.6264329-19.2418802-72.7830411 22.1693641v80.4801471c0 .972682.3385806 1.926489.9632442 2.672074 22.2029862 26.502489 44.4059723 26.742562 69.0987649.927853 2.420793-2.531097 6.471963-2.322286 8.66035.412313 16.035392 20.037014 49.774894 31.967558 70.849475-3.733825.930802-1.5767 1.432774-3.378138 1.432774-5.209659v-75.6190967c0-1.0641106-.123281-2.1317604-.407594-3.1575299-10.398083-37.538212-53.672701-44.3204424-77.813973-18.9416406zm-22.840096 29.8861712c0 5.416701-4.3915203 9.808221-9.8082207 9.808221-5.4172903 0-9.8082212-4.39152-9.8082212-9.808221 0-5.4167002 4.3909309-9.808221 9.8082212-9.808221 5.4167004 0 9.8082207 4.3915208 9.8082207 9.808221" fill="#fff"/></svg>

<?xml version="1.0" encoding="UTF-8" standalone="no"?>
<svg width="256px" height="256px" viewBox="0 0 256 256" version="1.1" xmlns="http://www.w3.org/2000/svg" xmlns:xlink="http://www.w3.org/1999/xlink" preserveAspectRatio="xMidYMid">
	<g>
		<circle fill="#373E4D" cx="128" cy="128" r="128"></circle>
		<path d="M159.581198,131.861093 C142.601438,131.861093 128.836424,118.096079 128.836424,101.116318 C128.836424,84.1365581 142.601438,70.3715443 159.581198,70.3715443 C176.560959,70.3715443 190.325972,84.1365581 190.325972,101.116318 C190.325972,118.096079 176.560959,131.861093 159.581198,131.861093 L159.581198,131.861093 Z M190.116571,173.481148 C188.874323,174.349424 186.760258,175.037793 183.432258,175.083802 C159.869051,143.704337 145.146691,140.515544 130.04623,154.509424 C128.758562,155.702715 126.799631,155.730438 125.486009,154.564871 C110.660424,141.406825 93.65353,143.622936 72.576,174.526973 C70.199447,175.744447 68.4109862,175.173461 67.1380645,174.108761 L67.1380645,100.411434 C67.1380645,95.8860143 68.2747281,91.3877286 70.7002396,87.567194 C80.4960737,72.1381802 105.333382,67.1910097 117.124129,88.9858115 C106.66706,137.299028 159.162986,159.886604 190.116571,132.070494 L190.116571,173.481148 Z M125.280737,74.1366318 C108.131097,48.6203922 60.6543041,54.8947516 52.4976959,96.3059959 L52.4976959,176.786143 C52.4976959,177.758825 52.8362765,178.712632 53.4609401,179.458217 C75.6639263,205.960706 97.8669124,206.200779 122.559705,180.38607 C124.980498,177.854973 129.031668,178.063784 131.220055,180.798383 C147.255447,200.835397 180.994949,212.765941 202.06953,177.064558 C203.000332,175.487858 203.502304,173.68642 203.502304,171.854899 L203.502304,96.2358023 C203.502304,95.1716917 203.379023,94.1040419 203.09471,93.0782724 C192.696627,55.5400604 149.422009,48.75783 125.280737,74.1366318 L125.280737,74.1366318 Z M102.440641,104.022803 C102.440641,109.439504 98.0491207,113.831024 92.6324203,113.831024 C87.21513,113.831024 82.8241991,109.439504 82.8241991,104.022803 C82.8241991,98.6061028 87.21513,94.214582 92.6324203,94.214582 C98.0491207,94.214582 102.440641,98.6061028 102.440641,104.022803" fill="#FFFFFF"></path>
	</g>
</svg>
